svgs/sharp-regular/square-9.svg

<svg xmlns="http://www.w3.org/2000/svg" viewBox="0 0 448 512"><!--! Font Awesome Pro 6.6.0 by @fontawesome - https://fontawesome.com License - https://fontawesome.com/license (Commercial License) Copyright 2024 Fonticons, Inc. --><path d="M400 80l0 352L48 432 48 80l352 0zM48 32L0 32 0 80 0 432l0 48 48 0 352 0 48 0 0-48 0-352 0-48-48 0L48 32zM224 272a48 48 0 1 1 0-96 48 48 0 1 1 0 96zm96-48c0-53-43-96-96-96s-96 43-96 96c0 49.2 37 89.8 84.7 95.3l-44.4 48.4L153.4 384l65.1 0 68.1-74.3c21.4-23.4 33.3-54 33.3-85.7z"/></svg>

<svg xmlns="http://www.w3.org/2000/svg" viewBox="0 0 448 512"><!--! Font Awesome Pro 6.4.0 by @fontawesome - https://fontawesome.com License - https://fontawesome.com/license (Commercial License) Copyright 2023 Fonticons, Inc. --><path d="M400 80V432H48V80H400zM48 32H0V80 432v48H48 400h48V432 80 32H400 48zM224 272a48 48 0 1 1 0-96 48 48 0 1 1 0 96zm96-48c0-53-43-96-96-96s-96 43-96 96c0 49.2 37 89.8 84.7 95.3l-44.4 48.4L153.4 384h65.1l68.1-74.3c21.4-23.4 33.3-54 33.3-85.7z"/></svg>
